X: 20543
T: The SNOW STORM
C:
%R: jig
B: Elias Howe "The Musician's Companion" 1843 p.54 #3
S: http://imslp.org/wiki/The_Musician's_Companion_(Howe,_Elias)
Z: 2015 John Chambers <jc:trillian.mit.edu>
M: 6/8
L: 1/8
K: D
% - - - - - - - - - - - - - - - - - - - - - - - - -
A |\
dfe dcd | ecA ABc | d2d f2a | gfg e2A |\
dfe dcd | ecA ABc | dfa age | edd d2 :|
|: A |\
gfg e^de | cBc ABc | def gBe | (dcB) A2A |\
gfg e^de | cBc ABc | dfa age | edd d2 :|
% - - - - - - - - - - - - - - - - - - - - - - - - -

%%sep 1 1 500

